X:1
T:Title
%%score { ( 1 3 ) | ( 2 4 ) }
L:1/8
M:4/4
K:E
V:1 treble nm="Grand Piano"
V:3 treble 
V:2 bass 
V:4 bass 
V:1
 z4 z2[Q:1/4=100] EF | G2 G2 G2 FG | [CEA]2 [CEA]2 [CEA]2 [B,EG][A,DF] | E2 E2 D2 E2 | %4
[M:3/4] [DF]6 |[M:1/4] EF |[M:4/4] G2 G2 G2 FG | [=DEB]2 [CEA]2 [CEA]2 [B,G]F | E2 DE [DG]2 [DF]2 | %9
[M:3/4] E6 |[M:1/4] GA |[M:4/4] .B2 .B2 .B2 z C | A6 z2 | .[FA]2 .[DA]2 .[DA]2 [DB]2 |[M:3/4] G6 | %15
[M:1/4] EF |[M:4/4] G3 G A3 A |[M:9/8] z2 e- e z z z3 |[M:4/4] B2 E2 G2 [DF]2 |[M:3/4] [B,E]6 |] %20
V:2
 z4 z2 [E,G,][E,A,E] | [E,B,E]2 [E,B,E]2 [E,B,E]2 [E,A,E][E,B,E] | A,,2 A,,2 A,,2 E,B,, | %3
 [E,G,B,]2 [G,B,]2 [F,A,B,]2 [E,G,B,]2 |[M:3/4] [B,,B,]6 |[M:1/4] [E,G,][E,A,E] | %6
[M:4/4] [E,B,E]2 [E,B,E]2 [E,B,E]2 [E,A,E][E,B,E] | A,,2 A,,2 A,,2 z A, | %8
 [B,,G,B,]2 [B,,F,B,][B,,F,B,] [B,,B,]2 [B,,A,]2 |[M:3/4] [E,G,]6 |[M:1/4] [E,B,E][E,A,E] | %11
[M:4/4] .[E,G,E]2 .[E,G,E]2 .[E,G,E]2 .[C,G,]2 | [F,CF]2 [F,C][F,C] [F,C]2 [F,B,D][F,B,E] | %13
 .[D,B,]2 .[B,,B,]2 .[B,,B,]2 [B,,B,]2 |[M:3/4] [E,B,E]2 [E,B,][E,B,] [E,B,]2 | %15
[M:1/4] [E,G,][E,A,E] |[M:4/4] [E,B,E]3 [E,B,E] [F,B,D]3 [F,B,D] | %17
[M:9/8][K:treble] [G,B,E]2 [G,E]- [G,E] [A,CE]2- [A,CE][A,DA][A,EA] | %18
[M:4/4] [B,EG]2[K:bass] [G,B,]2 [B,D]2 [B,,A,]2 |[M:3/4] [E,G,]6 |] %20
V:3
 x8 | x8 | x8 | x8 |[M:3/4] x6 |[M:1/4] x2 |[M:4/4] x8 | z4 z2 C2 | x8 |[M:3/4] x6 |[M:1/4] x2 | %11
[M:4/4] z4 z2 [^Ec]2 | z2 FF F2 FG | x8 |[M:3/4] z2 EE E2 |[M:1/4] x2 |[M:4/4] x8 | %17
[M:9/8] .B3 ^B, e2- edc |[M:4/4] x8 |[M:3/4] x6 |] %20
V:4
 x8 | x8 | x8 | x8 |[M:3/4] x6 |[M:1/4] x2 |[M:4/4] x8 | z4 z2 A,,2 | x8 |[M:3/4] x6 |[M:1/4] x2 | %11
[M:4/4] x8 | x8 | x8 |[M:3/4] x6 |[M:1/4] x2 |[M:4/4] x8 |[M:9/8][K:treble] z2 B, z3 z3 | %18
[M:4/4] x2[K:bass] x6 |[M:3/4] x6 |] %20

